X:1
T: Trip it up stairs
C:
R:Jig
Q:180
K:G
M:6/8
L:1/16
|:G4A2 B4G2|A4G2 F2G2A2|B4E2 E2F2E2|B4E2 E2F2E2|
G4A2 B4c2|d4A2 B2A2G2|F4D2 D2E2D2|F4D2 D2E2D2:|
|:d4d2 d2A2F2|D2F2A2 d2A2F2|E4G2 G2F2E2|G4E2 E2F2E2|
d2^c2d2 e2d2c2|d2^c2B2 A2B2A2|F4D2 D2E2D2|F4D2 D2E2D2:|
|:g4g2 g2a2g2|f4f2 f2g2f2|e4e2 e4g2|b2g2e2 e4f2|
g2f2g2 a2g2f2|e2d2c2 B2A2G2|F4D2 D2E2D2|F4D2 D2E2D2:|
